packages/katcn/src/icons/svg/upload.svg

<svg width="24" height="24" viewBox="0 0 24 24" fill="none" xmlns="http://www.w3.org/2000/svg">
<path d="M18.181 5.18378C17.9714 5.18378 17.8667 5.18378 17.6571 5.18378C16.5048 3.23243 14.4095 2 12 2C9.69524 2 7.49524 3.23243 6.34286 5.18378C6.13333 5.18378 6.02857 5.18378 5.81905 5.18378C3.2 5.18378 1 7.34054 1 10.0108C1 12.6811 3.2 14.7351 5.81905 14.7351H8.33333C8.96191 14.7351 9.38095 14.3243 9.38095 13.7081C9.38095 13.0919 8.96191 12.6811 8.33333 12.6811H5.81905C4.35238 12.6811 3.09524 11.4486 3.09524 10.0108C3.09524 8.47027 4.35238 7.34054 5.81905 7.34054C6.13333 7.34054 6.34286 7.34054 6.65714 7.44324C7.18095 7.64865 7.70476 7.34054 7.91429 6.82703C8.64762 5.08108 10.219 4.05405 12 4.05405C13.781 4.05405 15.4571 5.08108 16.0857 6.72432C16.2952 7.23784 16.819 7.44324 17.3429 7.34054C17.5524 7.23784 17.8667 7.23784 18.181 7.23784C19.7524 7.23784 20.9048 8.47027 20.9048 9.90811C20.9048 11.4486 19.6476 12.5784 18.181 12.5784H13.0476V9.29189C13.0476 8.67568 12.6286 8.26486 12 8.26486C11.3714 8.26486 10.9524 8.67568 10.9524 9.29189V17.5081L10.0095 16.5838C9.59048 16.173 8.96191 16.173 8.54286 16.5838C8.12381 16.9946 8.12381 17.6108 8.54286 18.0216L11.2667 20.6919C11.4762 20.8973 11.7905 21 12 21C12.2095 21 12.5238 20.8973 12.7333 20.6919L15.4571 18.0216C15.8762 17.6108 15.8762 16.9946 15.4571 16.5838C15.0381 16.173 14.4095 16.173 13.9905 16.5838L13.0476 17.4054V14.7351H18.181C20.9048 14.7351 23 12.5784 23 10.0108C23 7.44324 20.9048 5.18378 18.181 5.18378Z" fill="black"/>
</svg>

<svg xmlns="http://www.w3.org/2000/svg" fill="none" viewBox="0 0 24 24"><path fill="#000" d="M18.181 5.184h-.524C16.505 3.232 14.41 2 12 2 9.695 2 7.495 3.232 6.343 5.184h-.524C3.2 5.184 1 7.34 1 10.01s2.2 4.724 4.819 4.724h2.514c.629 0 1.048-.41 1.048-1.027 0-.616-.42-1.027-1.048-1.027H5.82c-1.467 0-2.724-1.232-2.724-2.67 0-1.54 1.257-2.67 2.724-2.67.314 0 .524 0 .838.102.524.206 1.048-.102 1.257-.616C8.648 5.081 10.22 4.054 12 4.054s3.457 1.027 4.086 2.67c.21.514.733.72 1.257.617.21-.103.524-.103.838-.103 1.571 0 2.724 1.232 2.724 2.67 0 1.54-1.257 2.67-2.724 2.67h-5.133V9.292c0-.616-.42-1.027-1.048-1.027s-1.048.41-1.048 1.027v8.216l-.943-.924a1.027 1.027 0 0 0-1.466 0 .98.98 0 0 0 0 1.438l2.724 2.67c.21.205.524.308.733.308.21 0 .524-.103.733-.308l2.724-2.67a.98.98 0 0 0 0-1.438 1.027 1.027 0 0 0-1.466 0l-.943.821v-2.67h5.133c2.724 0 4.819-2.157 4.819-4.724s-2.095-4.827-4.819-4.827"/></svg>
